icons/lines/chart-square.svg

<svg xmlns="http://www.w3.org/2000/svg" width="24" height="24" viewBox="0 0 24 24" fill="none" stroke="currentColor" stroke-width="2" stroke-linecap="round" stroke-linejoin="round" >
  <path d="M10.1098 11.15H7.45981C6.82981 11.15 6.31982 11.66 6.31982 12.29V17.41H10.1098V11.15V11.15Z" stroke-miterlimit="10"/>
  <path d="M12.7611 6.59998H11.2411C10.6111 6.59998 10.1011 7.10999 10.1011 7.73999V17.4H13.8911V7.73999C13.8911 7.10999 13.3911 6.59998 12.7611 6.59998Z" stroke-miterlimit="10"/>
  <path d="M16.5479 12.85H13.8979V17.4H17.688V13.99C17.678 13.36 17.1679 12.85 16.5479 12.85Z" stroke-miterlimit="10"/>
  <path d="M9 22H15C20 22 22 20 22 15V9C22 4 20 2 15 2H9C4 2 2 4 2 9V15C2 20 4 22 9 22Z"/>
  </svg>

<svg xmlns="http://www.w3.org/2000/svg" width="24" height="24" viewBox="0 0 24 24" fill="none" stroke="currentColor" stroke-width="2" stroke-linecap="round" stroke-linejoin="round">
  <path d="M10.11 11.15H7.46a1.14 1.14 0 0 0-1.14 1.14v5.12h3.79z" />
  <path d="M11.241 6.6a1.14 1.14 0 0 0-1.14 1.14v9.66h3.79V7.74a1.13 1.13 0 0 0-1.13-1.14z" />
  <path d="M13.898 12.85v4.55h3.79v-3.41a1.153 1.153 0 0 0-1.14-1.14z" />
  <path d="M15 22c5 0 7-2 7-7V9c0-5-2-7-7-7H9C4 2 2 4 2 9v6c0 5 2 7 7 7z" />
</svg>
